X:1
T:Danny Boy `Begeleiding `horn
M:4/4
L:1/8
Q:1/4=27
K:Eb
V:3
z4
E2 EE|A,2 A,G/2F/2 E2 CA,|B,2 B,C/2D/2 E2 EE|A,2 A,2 E2 B,B,|
E,2 E,A G2 A2|G2 GA G2 AG|F2 B,B,/2A,/2 G,2 A,C|B,2 CB, E,2 A,B,|
E,2 z2 E2 EE|A,2 A,G/2F/2 E2 CA,|B,2 B,C/2D/2 E2 EE|A,2 A,2 E2 B,B,|
E,2 E,A G2 A2|G2 GA G2 AG|F2 B,B,/2A,/2 G,2 A,C|B,2 CB, E,2 A,B,|
E,2 CB, E,2 A,2|A,2 B,2 E,4-|[E,3E,3]
